Adwaita++/actions/16/boundingbox_bottom_right.svg

<svg height="16" viewBox="0 0 16 16" width="16" xmlns="http://www.w3.org/2000/svg">
  <path d="m10 0v6.1015625c-.2234.0474-.4433031.11-.6582031.1875-.0367.0129-.073075.0253625-.109375.0390625-.4201.159-.8168875.3737719-1.1796875.6386719-.03.0219-.0583907.0457594-.0878906.0683593-.1753.1328001-.3417469.2769407-.4980469.4316407-.1607.1621-.3101656.3349781-.4472657.5175781-.0189499.02503-.0362074.0507719-.0546874.0761719-.1227401.16734-.2349276.3421575-.3359376.5234375-.01004.01818-.0194968.0363775-.0292968.0546875-.11193.20644-.2091757.420515-.2910156.640625-.0008001.002-.0012472.0039594-.0019532.0058593l-.0039062.0117188c-.08178.22676-.1470525.4591325-.1953125.6953125-.0006.0026-.0014111.0051125-.0019531.0078125h-6.1054688v2h6.1015625c.0564.268.134875.532109.234375.787109.01017.02658.0186969.053728.0292969.080079.0939.231.2048312.453968.3320312.667968.0285.049.0577906.095578.0878906.142578.1288.205.2723875.400938.4296876.585938.0223499.02591.0474525.048789.0703124.074219.15521.17288.3222801.334725.5.484375.02658.02236.0510951.046559.078125.068359.1896601.15108.3900594.288156.5996094.410156.04609.02723.0916819.054318.1386719.080078.20995.11577.4279637.216292.6523437.300782.043813.01636.0884565.029762.1328126.044921.23136.080431.4683343.143754.7089842.189454.01382.0025.027166.005412.041016.007812.28501.05033.573861.075815.863281.076172.167 0 .334-.009391.5-.025391.16741-.01661.332001-.041508.494141-.074218.01392-.0028.027135-.006866.041015-.009766.3042-.06461.601722-.157464.888672-.277344.00762-.0032.015838-.004612.023438-.007812l.015625-.007813c.27747-.11957.543531-.26404.794921-.43164.01628-.0108.034642-.018307.050782-.029297.24792-.17017.479979-.362349.693359-.574219.01485-.01461.030242-.028179.044922-.042969.20171-.20515.385328-.427332.548828-.664062.02328-.03331.049786-.063767.072266-.097657.15239-.233309.285024-.478965.396484-.734374.01927-.04337.040524-.084897.058594-.128907.10779-.26439.192736-.537516.253906-.816406.01167-.05293.025156-.104653.035156-.158203.01348-.0759.025157-.152086.035157-.228516.01186-.08558.02375-.170902.03125-.257812.01338-.14415.020604-.288824.021484-.433594-.002-.264-.025359-.528063-.068359-.789062-.00689-.04297-.011532-.086277-.019532-.128907-.04712-.2487797-.113055-.4936316-.197265-.7324216-.0118-.03358-.02462-.0663394-.03711-.0996094-.08974-.24239-.198138-.477495-.324218-.703125-.00866-.01532-.018544-.0296919-.027344-.0449219-.13172-.22824-.281266-.4457206-.447266-.6503906-.00412-.00506-.007619-.010525-.011718-.015625-.167751-.20296-.351259-.3923463-.548829-.5664063-.02216-.0197-.043896-.0392737-.066406-.0585937-.19898-.17206-.411226-.3281369-.634765-.4667969-.011911-.00732-.02513-.0123312-.03711-.0195312-.4859-.29361-1.018249-.5023175-1.574219-.6171875-.0021-.0005-.003759-.0015352-.005859-.0019531v-6.1054688z" fill="#474747"/>
</svg>

<svg xmlns="http://www.w3.org/2000/svg" width="16" height="16" viewBox="0 0 16 16">
 <defs>
  <style id="current-color-scheme" type="text/css">
   .ColorScheme-Text { color:#474747; } .ColorScheme-Highlight { color:#4285f4; }
  </style>
 </defs>
 <path style="fill:currentColor" class="ColorScheme-Text" d="M 10 0 L 10 6.1015625 C 9.7766 6.1489625 9.5566969 6.2115625 9.3417969 6.2890625 C 9.3050969 6.3019625 9.2687219 6.314425 9.2324219 6.328125 C 8.8123219 6.487125 8.4155344 6.7018969 8.0527344 6.9667969 C 8.0227344 6.9886969 7.9943437 7.0125563 7.9648438 7.0351562 C 7.7895438 7.1679563 7.6230969 7.3120969 7.4667969 7.4667969 C 7.3060969 7.6288969 7.1566313 7.801775 7.0195312 7.984375 C 7.0005813 8.009405 6.9833238 8.0351469 6.9648438 8.0605469 C 6.8421037 8.2278869 6.7299162 8.4027044 6.6289062 8.5839844 C 6.6188662 8.6021644 6.6094094 8.6203619 6.5996094 8.6386719 C 6.4876794 8.8451119 6.3904337 9.0591869 6.3085938 9.2792969 C 6.3077937 9.2812969 6.3073466 9.2832563 6.3066406 9.2851562 L 6.3027344 9.296875 C 6.2209544 9.523635 6.1556819 9.7560075 6.1074219 9.9921875 C 6.1068219 9.9947875 6.1060108 9.9973 6.1054688 10 L 0 10 L 0 12 L 6.1015625 12 C 6.1579625 12.268 6.2364375 12.532109 6.3359375 12.787109 C 6.3461075 12.813689 6.3546344 12.840837 6.3652344 12.867188 C 6.4591344 13.098188 6.5700656 13.321156 6.6972656 13.535156 C 6.7257656 13.584156 6.7550562 13.630734 6.7851562 13.677734 C 6.9139562 13.882734 7.0575437 14.078672 7.2148438 14.263672 C 7.2371937 14.289582 7.2622963 14.312461 7.2851562 14.337891 C 7.4403662 14.510771 7.6074363 14.672616 7.7851562 14.822266 C 7.8117362 14.844626 7.8362513 14.868825 7.8632812 14.890625 C 8.0529413 15.041705 8.2533406 15.178781 8.4628906 15.300781 C 8.5089806 15.328011 8.5545725 15.355099 8.6015625 15.380859 C 8.8115125 15.496629 9.0295262 15.597151 9.2539062 15.681641 C 9.2977192 15.698001 9.3423627 15.711403 9.3867188 15.726562 C 9.6180788 15.806993 9.8550531 15.870316 10.095703 15.916016 C 10.109523 15.918516 10.122869 15.921428 10.136719 15.923828 C 10.421729 15.974158 10.71058 15.999643 11 16 C 11.167 16 11.334 15.990609 11.5 15.974609 C 11.66741 15.957999 11.832001 15.933101 11.994141 15.900391 C 12.008061 15.897591 12.021276 15.893525 12.035156 15.890625 C 12.339356 15.826015 12.636878 15.733161 12.923828 15.613281 C 12.931448 15.610081 12.939666 15.608669 12.947266 15.605469 L 12.962891 15.597656 C 13.240361 15.478086 13.506422 15.333616 13.757812 15.166016 C 13.774092 15.155216 13.792454 15.147709 13.808594 15.136719 C 14.056514 14.966549 14.288573 14.77437 14.501953 14.5625 C 14.516803 14.54789 14.532195 14.534321 14.546875 14.519531 C 14.748585 14.314381 14.932203 14.092199 15.095703 13.855469 C 15.118983 13.822159 15.145489 13.791702 15.167969 13.757812 C 15.320359 13.524503 15.452993 13.278847 15.564453 13.023438 C 15.583723 12.980068 15.604977 12.938541 15.623047 12.894531 C 15.730837 12.630141 15.815783 12.357015 15.876953 12.078125 C 15.888623 12.025195 15.902109 11.973472 15.912109 11.919922 C 15.925589 11.844022 15.937266 11.767836 15.947266 11.691406 C 15.959126 11.605826 15.971016 11.520504 15.978516 11.433594 C 15.991896 11.289444 15.99912 11.14477 16 11 C 15.998 10.736 15.974641 10.471937 15.931641 10.210938 C 15.924751 10.167968 15.920109 10.124661 15.912109 10.082031 C 15.864989 9.8332513 15.799054 9.5883994 15.714844 9.3496094 C 15.703044 9.3160294 15.690224 9.28327 15.677734 9.25 C 15.587994 9.00761 15.479596 8.772505 15.353516 8.546875 C 15.344856 8.531555 15.334972 8.5171831 15.326172 8.5019531 C 15.194452 8.2737131 15.044906 8.0562325 14.878906 7.8515625 C 14.874786 7.8465025 14.871287 7.8410375 14.867188 7.8359375 C 14.699437 7.6329775 14.515929 7.4435912 14.318359 7.2695312 C 14.296199 7.2498312 14.274463 7.2302575 14.251953 7.2109375 C 14.052973 7.0388775 13.840727 6.8828006 13.617188 6.7441406 C 13.605277 6.7368206 13.592058 6.7318094 13.580078 6.7246094 C 13.094178 6.4309994 12.561829 6.2222919 12.005859 6.1074219 C 12.003759 6.1069219 12.0021 6.1058867 12 6.1054688 L 12 0 L 10 0 z"/>
</svg>
